!!!!SEGMENT: pl-cz--ii-87--005-002_hanel--missae-kirie-gloria.krn
!!!cenid: 18xx:1199
!!!COM: Hanel
!!!COM-rismID:
!!!CDT: ~1800-~1899
!!!CNT:
!!!OPR: Missae Kirie
!!!OTL: Gloria
!!!OMV: 002
!!!PDT: 1888
!!!AGN: Sacred; Mass
!!!SMS-siglum: PL-CZ
!!!SMS-shelfmark: II-87
!!!SMS-shelfwork: 005-002 M
!!!SMS-variant:
!!!SMS-altvar:
!!!NIFC-rismSourceID: 300033228
!!!NIFC-islandoraID: pl-cz:33881
!!!URL-pdf-islandora: https://repozytorium.nifc.pl/islandora/object/pl-cz%3A33881/datastream/PDF/view
!!!URL-scan:
!!!ONB-nifc: UWAGA: części Mszy: Kirie, Gloria, Credo, Sanctus, Benedictus, Agnus
!!!OMD: Allegro.
!!!AIN: 1 organ 1 vox
!!!key: C
**kern	**kern	**text	**dynam
*part2	*part1	*part1	*part1
*staff2	*staff1	*staff1	*
*I"Organo	*I"Voce	*	*
*Iorgan	*Ivox	*	*
*ICklav	*ICvox	*	*
*clefF4	*clefG2	*	*
*k[]	*k[]	*	*
*C:	*C:	*	*
*M3/4	*M3/4	*	*
=1	=1	=1	=1
!	!	!	!LO:DY:b:rj
8.C\L	8.e\L 8.g\ 8.cc\	Glo-	f
16c\Jk	16e\Jk 16g\	-ri-	.
4c\	4e/ 4g/	-a	.
4r	4r	.	.
=2	=2	=2	=2
8.C\L 8.c\	8.g\L 8.ee\	glo-	.
16C\Jk 16c\	16f\Jk 16dd\	.	.
4c\	4e\ 4cc\	-ria	.
4r	8r	.	.
.	8g\ 8b\	.	.
=3	=3	=3	=3
!	!LO:N:vis=4	!	!
2F\ 2c\	4.f/ 4.a/	in	.
.	8g/L 8b/	ex-	.
4F\ 4c\	8a/ 8cc/	-cel-	.
.	8f/J 8a/	-sis	.
=4	=4	=4	=4
2C\ 2c\	4d#X/ 4f#X/	De-	.
.	4e/ 4g/	-o	.
4r	4r	.	.
=5	=5	=5	=5
!	!	!	!LO:DY:b:rj
2C\ 2c\	2e/ 2g/	Et	p
4C\ 4c\	4e/ 4g/	in	.
=6	=6	=6	=6
2BB\ 2B\	2d/ 2f/ 2g/	ter-	.
4BB\ 4B\	4d/ 4f/ 4g/	-ra	.
!!LO:LB:g=original
=7	=7	=7	=7
2.C\ 2.c\	4e/ 4g/	pax	.
.	4e\ 4g\ 4ee\	ho-	.
.	4e\ 4g\ 4cc\	-mi-	.
=8	=8	=8	=8
*	*^	*	*
2GG/ 2G/	(<4cc/	2d\ 2f\	-ni-	.
.	4b/)	.	.	.
4GG#X/ 4G#X/	4b/	4d\ 4f\	-bus	.
=9	=9	=9	=9	=9
4AA\ 4A\	(>4cc/	4c\ 4e\	bo-	.
4BB\ 4B\	4d/ 4f/ 4g#X/ 4b/	2ryy	.	.
4C\ 4c\	4e/ 4a/)	.	-ne	.
=10	=10	=10	=10	=10
*^	*	*	*	*
(<4B/	2.D\	(4>g/	2.d\	wo-	.
4A/)	.	4f#X/)	.	.	.
4B/	.	4g/	.	-lun-	.
=11	=11	=11	=11	=11	=11
2.c\	2.D\	2b/	2.f#X\	-ta-	.
.	.	4a/	.	.	.
*v	*v	*	*	*	*
=12	=12	=12	=12	=12
4G\ 4B\	4g/	2.ryy	-tis	.
4r	4r	.	.	.
4r	4g/	.	lau-	.
!!LO:LB:g=original
=13	=13	=13	=13	=13
2C/	2ee/	2e\ 2g\	-da-	.
4E\	4cc/	4e\ 4g\	-mus	.
*	*v	*v	*	*
=14	=14	=14	=14
4G\	4d/ 4g/ 4b/	te	.
4GG/	4r	.	.
4r	4g/	a-	.
=15	=15	=15	=15
*	*^	*	*
2C/	4ee/	2e\ 2g\	-do-	.
.	4dd/	.	-ra-	.
4E\	4cc\	4e\ 4g\	-mus	.
*	*v	*v	*	*
=16	=16	=16	=16
4G\	4d/ 4g/ 4b/	te	.
4GG/	4r	.	.
!	!	!	!LO:DY:b:rj
4r	4g/	glo-	f
=17	=17	=17	=17
4G\	4c/ 4e/ 4g/	-glo-	.
4E\	4e/ 4g/ 4cc/	-ri-	.
4C\	4g/ 4cc/ 4ee/	-fi-	.
=18	=18	=18	=18
*	*^	*	*
2GG/	2ff/	2g\ 2b\	-ca-	.
4G\	4f/ 4g/ 4b/	4ryy	-mus	.
*	*v	*v	*	*
!!LO:PB:g=original
=19	=19	=19	=19
4C\ 4c\	4e/ 4g/ 4cc/	te	.
!	!	!	!LO:DY:b
4r	4cc\	.	p
4r	4b\	.	.
=20	=20	=20	=20
*^	*^	*	*
2.c/	2.A\	2.a/	2.e\	Fi-	.
*v	*v	*	*	*	*
=21	=21	=21	=21	=21
2.E\ 2.d\	2.b/	2a\	-li	.
.	.	4g#X\	.	.
=22	=22	=22	=22	=22
4A\ 4c\	4a/	4a\	u-	.
4G#X\ 4B\	4e/ 4b/	2ryy	-ni-	.
4Gn\ 4B-X\	4e/ 4cc#X/	.	-ge-	.
=23	=23	=23	=23	=23
*^	*	*	*	*
(>4A/	(<4F\	(>4dd/	2a\	-ni-	.
4c#X/)	4E\)	4ee/)	.	.	.
4d/	4D\	4ff/	4a\	-te	.
*v	*v	*	*	*	*
=24	=24	=24	=24	=24
2E\ 2e\	2ee/	2a\ 2cc\	Je-	.
4r	4e/	4ryy	-su	.
=25	=25	=25	=25	=25
2.E\	(>2cc/	2.d\ 2.e\ 2.g#X\	Chris-	.
.	4b/)	.	.	.
*	*v	*v	*	*
!!LO:LB:g=original
=26	=26	=26	=26
4AA\ 4A\	4c/ 4e/ 4a/	-te	.
4AA\ 4A\	4r	.	.
4BB\ 4B\	4r	.	.
=27	=27	=27	=27
4C\ 4c\	4e/ 4g/	Com	.
4C\ 4c\	4e/ 4g/	san-	.
4C\ 4c\	4e/ 4g/	-cto	.
=28	=28	=28	=28
*	*^	*	*
2BB\ 2B\	4.g/	2d\ 2f\	Spi-	.
.	8a/	.	-ri-	.
4BB\ 4B\	4g/	4d\ 4f\	-tu	.
*	*v	*v	*	*
=29	=29	=29	=29
4BB-X\ 4B-X\	4e\ 4cc\	in	.
4AA\ 4A\	4f\ 4cc\	glo-	.
4AA#X\ 4A#X\	4f#X\ 4cc\ 4dd\	-ri-	.
=30	=30	=30	=30
*	*^	*	*
8GG\L	2.ee/	2.g\ 2.cc\	-a	.
8G\	.	.	.	.
8GG\	.	.	.	.
8G\	.	.	.	.
8GG\	.	.	.	.
8G\J	.	.	.	.
*	*v	*v	*	*
=31	=31	=31	=31
8GG\L	2.f/ 2.g/ 2.b/ 2.dd/	Pa-	.
8G\	.	.	.
8GG\	.	.	.
8G\	.	.	.
8GG\	.	.	.
8G\J	.	.	.
!!LO:LB:g=original
=32	=32	=32	=32
4C\ 4c\	4e\ 4g\ 4cc\	-tris	.
4r	4g\ 4dd\	.	.
4r	4cc\ 4ee\	.	.
=33	=33	=33	=33
*	*^	*	*
2.G\ 2.d\	2.b/ 2.ff/	2.g\	A-	.
*	*v	*v	*	*
=34	=34	=34	=34
4c\ 4e\	4g\ 4cc\ 4ee\	-men	.
4G\ 4d\	4r	.	.
4E\ 4c\	4r	.	.
=35	=35	=35	=35
*	*^	*	*
2.G\ 2.B\	2.b/ 2.dd/	2.f\	A-	.
*	*v	*v	*	*
=36	=36	=36	=36
4C\ 4c\	4e\ 4g\ 4cc\	-men	.
4CC/ 4C/	4r	.	.
4EE/ 4E/	4r	.	.
=37	=37	=37	=37
*	*^	*	*
[<2.GG\ [>2.G\	[>2.g/ [>2.b/	[<2.d\ [>2.f\	A-	.
=38	=38	=38	=38	=38
2.GG\] 2.G\]	2.g/] 2.b/]	2.d\] 2.f\]	.	.
*	*v	*v	*	*
=39	=39	=39	=39
4CC/ 4C/	4c/ 4e/ 4g/ 4cc/	-men	.
4r	4r	.	.
4r	4r	.	.
!!LO:LB:g=original
==	==	==	==
*-	*-	*-	*-
!!!system-decoration: [(s1,s2)]
!!!RDF**kern: < = below
!!!RDF**kern: > = above
!!!ENC: Tomasz Grochalski
!!!END: 2020-11-08
!!!ENC: Marta Chmielewska
!!!END: 2021-11-15
